X: 77
T:The Flowers of Limerick
% Nottingham Music Database
S:via PR
M:4/4
L:1/4
K:Gm
G/2F/2|"G"D/2G/2G/2^F/2 G(G/2A/2)|"G"=B/2G/2d/2G/2 =e/2G/2d/2G/2|\
"Dm"D/2F/2F/2=E/2 F(F/2G/2)|"F"A/2F/2c/2F/2 d/2F/2c/2F/2|
"G"D/2G/2G/2^F/2 G(G/2A/2)|"G"=B/2A/2G/2A/2 B/2c/2d/2=e/2|\
"Dm"f/2=e/2f/2d/2 "Am"c/2=B/2A/2c/2|"G"=B/2G/2"D7"A/2^F/2 "G"G::
=B/2c/2|"D7"d/2g/2^f/2a/2 "G"g(g/2a/2)|"G"=b/2g/2a/2g/2 b/2g/2a/2^f/2|\
"D"d/2^c/2d/2=e/2 ^f/2e/2f/2g/2|a/2^f/2g/2f/2 (a/2f/2)g|
"G"B/2g/2^f/2a/2 g/2f/2g/2a/2|"G"=b/2g/2a/2g/2 "D"^f/2d/2d/2=e/2|\
"F"f/2=e/2f/2d/2 "Am"c/2=B/2A/2c/2|"G"=B/2G/2"D7"A/2^F/2 "G"G:|


